kora/panel/16/network-cellular-edge.svg

<svg xmlns="http://www.w3.org/2000/svg" width="16" height="16" viewBox="0 0 16 16">
 <defs>
  <style id="current-color-scheme" type="text/css">
   .ColorScheme-Text { color:#dfdfdf; } .ColorScheme-Highlight { color:#4285f4; } .ColorScheme-NeutralText { color:#ff9800; } .ColorScheme-PositiveText { color:#4caf50; } .ColorScheme-NegativeText { color:#f44336; }
  </style>
 </defs>
 <path style="fill:currentColor" class="ColorScheme-Text" d="m6 3h6v2h-6v2h4v2h-4v2h6v2h-6s-2 0-2-2v-6c0-2 2-2 2-2z" />
</svg>

<svg xmlns="http://www.w3.org/2000/svg" width="16" height="16" version="1.1">
 <defs>
  <style id="current-color-scheme" type="text/css">
   .ColorScheme-Text { color:#dfdfdf; } .ColorScheme-Highlight { color:#4285f4; }
  </style>
 </defs>
 <path style="fill:currentColor" class="ColorScheme-Text" d="M 3,1 C 3,1 1,1 1,3.06 V 13 C 1,15 3,15 3,15 H 13 C 15,15 15,13 15,13 V 3 C 15,3 15,1 13,1 Z M 6,3 H 12 V 5 H 6 V 7 H 10 V 9 H 6 V 11 H 12 V 13 H 6 C 6,13 4,13 4,11 V 5 C 4,3 6,3 6,3 Z"/>
</svg>
